MutationJam/Assets/Extern/Darkbringer Shader/LUTs/my-custom-look (2).cube
# My Custom Look
# Custom LUT built with AICreate
# Generated by AICreate LUT Generator — size=17, domain=[0,1]
TITLE "My Custom Look"
LUT_3D_SIZE 5
DOMAIN_MIN 0.0 0.0 0.0
DOMAIN_MAX 1.0 1.0 1.0
0.093000 0.093000 0.093000
0.111591 0.091845 0.091845
0.491930 0.073576 0.073576
0.814609 0.068601 0.068601
1.000000 0.071632 0.071632
0.089113 0.108860 0.089113
0.107704 0.107704 0.087958
0.489070 0.089027 0.070716
0.812748 0.083654 0.066740
1.000000 0.086445 0.070530
0.027657 0.446011 0.027657
0.045118 0.445161 0.026807
0.426587 0.426587 0.008233
0.772091 0.412523 0.026084
1.000000 0.409551 0.047877
0.010921 0.756928 0.010921
0.027282 0.756375 0.010368
0.384722 0.744290 0.000000
0.732530 0.732530 0.000000
1.000000 0.722982 0.028422
0.028165 1.000000 0.028165
0.043654 1.000000 0.027909
0.381609 1.000000 0.022460
0.709638 1.000000 0.017395
1.000000 1.000000 0.013014
0.092608 0.092608 0.112354
0.111199 0.091452 0.111199
0.491641 0.073288 0.091599
0.814421 0.068413 0.085328
1.000000 0.071520 0.087439
0.088721 0.108467 0.108467
0.107312 0.107312 0.107312
0.489911 0.088433 0.088433
0.814790 0.082864 0.082864
1.000000 0.085519 0.085519
0.027368 0.445722 0.045679
0.043803 0.445281 0.043803
0.426402 0.426402 0.024924
0.773107 0.412142 0.041181
1.000000 0.409020 0.061749
0.010733 0.756741 0.027647
0.025069 0.756994 0.025069
0.383638 0.744603 0.012678
0.732546 0.732546 0.000621
1.000000 0.722835 0.041207
0.028078 1.000000 0.043824
0.040705 1.000000 0.040705
0.379767 1.000000 0.034911
0.708875 1.000000 0.029511
1.000000 1.000000 0.024831
0.086404 0.086404 0.504757
0.103864 0.085553 0.503907
0.485333 0.066980 0.485333
0.810316 0.064309 0.450748
1.000000 0.069100 0.432595
0.083544 0.101855 0.501897
0.100901 0.100901 0.502379
0.483500 0.082022 0.483500
0.810582 0.078656 0.449617
1.000000 0.082997 0.431933
0.021061 0.439414 0.439414
0.037391 0.438869 0.438869
0.419990 0.419990 0.419990
0.792928 0.401446 0.401446
1.000000 0.395019 0.395019
0.006629 0.752636 0.393068
0.020861 0.752786 0.391821
0.357604 0.749087 0.357604
0.730542 0.730542 0.339059
1.000000 0.717225 0.350730
0.026197 1.000000 0.385744
0.038709 1.000000 0.383929
0.337039 1.000000 0.337039
0.689693 1.000000 0.324315
1.000000 1.000000 0.313065
0.084714 0.084714 0.830721
0.101075 0.084161 0.830168
0.458514 0.072075 0.818083
0.806323 0.060315 0.806323
1.000000 0.066771 0.768118
0.082853 0.099767 0.828860
0.099010 0.099010 0.830935
0.457579 0.086619 0.818544
0.806487 0.074562 0.806487
1.000000 0.080570 0.768680
0.042196 0.428636 0.788204
0.057326 0.428287 0.789252
0.413693 0.413693 0.805175
0.786630 0.395148 0.786630
1.000000 0.390432 0.758504
0.002635 0.748643 0.748643
0.016766 0.748692 0.748692
0.351306 0.742789 0.742789
0.724244 0.724244 0.724244
1.000000 0.707369 0.707369
0.024394 1.000000 0.718119
0.036795 1.000000 0.717574
0.332692 1.000000 0.698414
0.666452 1.000000 0.666452
1.000000 1.000000 0.648734
0.085556 0.085556 1.000000
0.101175 0.085209 1.000000
0.441947 0.077747 1.000000
0.772706 0.070712 1.000000
1.000000 0.064762 1.000000
0.084390 0.100353 1.000000
0.099733 0.099733 1.000000
0.441585 0.091975 1.000000
0.773396 0.084652 1.000000
1.000000 0.078487 1.000000
0.060309 0.423086 1.000000
0.074571 0.422880 1.000000
0.411485 0.411485 1.000000
0.766254 0.397870 1.000000
1.000000 0.386592 1.000000
0.039436 0.736125 1.000000
0.052645 0.736322 1.000000
0.366571 0.733723 1.000000
0.718543 0.718543 1.000000
1.000000 0.701578 1.000000
0.022793 1.000000 1.000000
0.035098 1.000000 1.000000
0.328856 1.000000 1.000000
0.660461 1.000000 1.000000
1.000000 1.000000 1.000000
