MutationJam/Assets/Extern/Darkbringer Shader/LUTs/my-custom-look (2).cube
# My Custom Look
# Custom LUT built with AICreate
# Generated by AICreate LUT Generator — size=17, domain=[0,1]
TITLE "My Custom Look"
LUT_3D_SIZE 17
DOMAIN_MIN 0.0 0.0 0.0
DOMAIN_MAX 1.0 1.0 1.0
0.093000 0.093000 0.093000
0.093000 0.093000 0.093000
0.093000 0.093000 0.093000
0.093000 0.093000 0.093000
0.111591 0.091845 0.091845
0.214073 0.085875 0.085875
0.311279 0.080883 0.080883
0.403707 0.076803 0.076803
0.491930 0.073576 0.073576
0.576551 0.071159 0.071159
0.658170 0.069525 0.069525
0.737352 0.068667 0.068667
0.814609 0.068601 0.068601
0.890371 0.069368 0.069368
0.964979 0.071035 0.071035
1.000000 0.072230 0.072230
1.000000 0.071632 0.071632
0.093000 0.093000 0.093000
0.093000 0.093000 0.093000
0.093000 0.093000 0.093000
0.093000 0.093000 0.093000
0.111591 0.091845 0.091845
0.214073 0.085875 0.085875
0.311279 0.080883 0.080883
0.403707 0.076803 0.076803
0.491930 0.073576 0.073576
0.576551 0.071159 0.071159
0.658170 0.069525 0.069525
0.737352 0.068667 0.068667
0.814609 0.068601 0.068601
0.890371 0.069368 0.069368
0.964979 0.071035 0.071035
1.000000 0.072230 0.072230
1.000000 0.071632 0.071632
0.093000 0.093000 0.093000
0.093000 0.093000 0.093000
0.093000 0.093000 0.093000
0.093000 0.093000 0.093000
0.111591 0.091845 0.091845
0.214073 0.085875 0.085875
0.311279 0.080883 0.080883
0.403707 0.076803 0.076803
0.491930 0.073576 0.073576
0.576551 0.071159 0.071159
0.658170 0.069525 0.069525
0.737352 0.068667 0.068667
0.814609 0.068601 0.068601
0.890371 0.069368 0.069368
0.964979 0.071035 0.071035
1.000000 0.072230 0.072230
1.000000 0.071632 0.071632
0.093000 0.093000 0.093000
0.093000 0.093000 0.093000
0.093000 0.093000 0.093000
0.093000 0.093000 0.093000
0.111591 0.091845 0.091845
0.214073 0.085875 0.085875
0.311279 0.080883 0.080883
0.403707 0.076803 0.076803
0.491930 0.073576 0.073576
0.576551 0.071159 0.071159
0.658170 0.069525 0.069525
0.737352 0.068667 0.068667
0.814609 0.068601 0.068601
0.890371 0.069368 0.069368
0.964979 0.071035 0.071035
1.000000 0.072230 0.072230
1.000000 0.071632 0.071632
0.089113 0.108860 0.089113
0.089113 0.108860 0.089113
0.089113 0.108860 0.089113
0.089113 0.108860 0.089113
0.107704 0.107704 0.087958
0.210451 0.101630 0.082253
0.307915 0.096535 0.077519
0.400597 0.092354 0.073692
0.489070 0.089027 0.070716
0.573939 0.086511 0.068548
0.655806 0.084778 0.067162
0.735238 0.083821 0.066553
0.812748 0.083654 0.066740
0.888768 0.084319 0.067766
0.963641 0.085880 0.069697
1.000000 0.087044 0.071126
1.000000 0.086445 0.070530
0.069032 0.197230 0.069032
0.069032 0.197230 0.069032
0.069032 0.197230 0.069032
0.069032 0.197230 0.069032
0.087333 0.196153 0.067955
0.190106 0.190106 0.061908
0.289021 0.184433 0.058626
0.383129 0.179683 0.056225
0.473008 0.175797 0.054655
0.559273 0.172726 0.053882
0.642534 0.170438 0.053889
0.723368 0.168922 0.054682
0.802297 0.168190 0.056290
0.879767 0.168277 0.058764
0.956130 0.169245 0.062185
1.000000 0.170198 0.065035
1.000000 0.169596 0.064450
0.052239 0.282634 0.052239
0.052239 0.282634 0.052239
0.052239 0.282634 0.052239
0.052239 0.282634 0.052239
0.070255 0.281634 0.051238
0.171429 0.276018 0.045622
0.270518 0.270518 0.040122
0.366021 0.265212 0.039117
0.457278 0.260778 0.038925
0.544910 0.257162 0.039518
0.629535 0.254330 0.040890
0.711741 0.252268 0.043056
0.792061 0.250983 0.046054
0.870951 0.250504 0.049948
0.948773 0.250891 0.054829
1.000000 0.251574 0.059242
1.000000 0.250967 0.058667
0.038512 0.365416 0.038512
0.038512 0.365416 0.038512
0.038512 0.365416 0.038512
0.038512 0.365416 0.038512
0.056248 0.364491 0.037587
0.155853 0.359299 0.032394
0.253404 0.354213 0.027309
0.349219 0.349219 0.022314
0.441829 0.344245 0.023475
0.530802 0.340095 0.025411
0.616768 0.336730 0.028123
0.700322 0.334131 0.031637
0.782008 0.332301 0.036001
0.862293 0.331268 0.041290
0.941547 0.331084 0.047603
1.000000 0.331438 0.053718
1.000000 0.330828 0.053154
0.027657 0.446011 0.027657
0.027657 0.446011 0.027657
0.027657 0.446011 0.027657
0.027657 0.446011 0.027657
0.045118 0.445161 0.026807
0.143175 0.440386 0.022033
0.239209 0.435710 0.017357
0.333534 0.431118 0.012764
0.426587 0.426587 0.008233
0.516885 0.421909 0.011493
0.604173 0.418018 0.015528
0.689057 0.414889 0.020372
0.772091 0.412523 0.026084
0.853751 0.410942 0.032748
0.934418 0.410195 0.040474
1.000000 0.410164 0.048430
1.000000 0.409551 0.047877
0.019526 0.524918 0.019526
0.019526 0.524918 0.019526
0.019526 0.524918 0.019526
0.019526 0.524918 0.019526
0.036714 0.524142 0.018750
0.133234 0.519782 0.014391
0.227764 0.515513 0.010121
0.320611 0.511319 0.005927
0.412206 0.507182 0.001790
0.503077 0.503077 0.000000
0.591677 0.498663 0.003032
0.677881 0.495009 0.009196
0.762252 0.492110 0.016245
0.845276 0.489986 0.024273
0.927346 0.488681 0.033402
1.000000 0.488210 0.043343
1.000000 0.487592 0.042800
0.014029 0.602673 0.014029
0.014029 0.602673 0.014029
0.014029 0.602673 0.014029
0.014029 0.602673 0.014029
0.030943 0.601971 0.013326
0.125929 0.598026 0.009381
0.218957 0.594162 0.005517
0.310328 0.590366 0.001722
0.400467 0.586622 0.000000
0.489894 0.582908 0.000000
0.579199 0.579199 0.000000
0.666720 0.575020 0.000000
0.752426 0.571589 0.006419
0.836813 0.568922 0.015810
0.920284 0.567059 0.026340
1.000000 0.566069 0.038163
1.000000 0.565468 0.037887
0.011142 0.679828 0.011142
0.011142 0.679828 0.011142
0.011142 0.679828 0.011142
0.011142 0.679828 0.011142
0.027782 0.679199 0.010514
0.121225 0.675671 0.006985
0.212741 0.672215 0.003529
0.302628 0.668820 0.000135
0.391303 0.665471 0.000000
0.479277 0.662149 0.000000
0.567131 0.658832 0.000000
0.655495 0.655495 0.000000
0.742543 0.651529 0.000000
0.828301 0.648316 0.007298
0.913180 0.645893 0.019236
0.997480 0.644322 0.032516
1.000000 0.643737 0.033105
0.010921 0.756928 0.010921
0.010921 0.756928 0.010921
0.010921 0.756928 0.010921
0.010921 0.756928 0.010921
0.027282 0.756375 0.010368
0.119162 0.753269 0.007261
0.209147 0.750226 0.004219
0.297530 0.747238 0.001231
0.384722 0.744290 0.000000
0.471224 0.741365 0.000000
0.557607 0.738444 0.000000
0.644492 0.735506 0.000000
0.732530 0.732530 0.000000
0.819676 0.728764 0.000000
0.905983 0.725772 0.012039
0.991758 0.723614 0.026794
1.000000 0.722982 0.028422
0.013502 0.834505 0.013502
0.013502 0.834505 0.013502
0.013502 0.834505 0.013502
0.013502 0.834505 0.013502
0.029579 0.834028 0.013025
0.119863 0.831353 0.010350
0.208285 0.828732 0.007729
0.295133 0.826158 0.005155
0.380810 0.823619 0.002616
0.465810 0.821100 0.000097
0.550693 0.818584 0.000000
0.636069 0.816054 0.000000
0.722577 0.813490 0.000000
0.810873 0.810873 0.000000
0.898636 0.807301 0.004692
0.985918 0.804543 0.020954
1.000000 0.803802 0.023811
0.019108 0.913052 0.019108
0.019108 0.913052 0.019108
0.019108 0.913052 0.019108
0.019108 0.913052 0.019108
0.034893 0.912654 0.018710
0.123537 0.910421 0.016477
0.210353 0.908234 0.014290
0.295623 0.906086 0.012142
0.379744 0.903967 0.010023
0.463200 0.901865 0.007921
0.546541 0.899766 0.005822
0.630367 0.897654 0.003710
0.715304 0.895515 0.001571
0.801995 0.893331 0.000000
0.891087 0.891087 0.000000
0.979917 0.887712 0.014953
1.000000 0.886793 0.019249
0.028053 0.993017 0.028053
0.028053 0.993017 0.028053
0.028053 0.993017 0.028053
0.028053 0.993017 0.028053
0.043536 0.992701 0.027737
0.130484 0.990926 0.025962
0.215640 0.989187 0.024223
0.299279 0.987480 0.022516
0.381790 0.985795 0.020831
0.463650 0.984124 0.019160
0.545397 0.982455 0.017491
0.627619 0.980776 0.015813
0.710931 0.979076 0.014112
0.795964 0.977340 0.012376
0.883351 0.975556 0.010592
0.973711 0.973711 0.008747
1.000000 0.972535 0.014722
0.028165 1.000000 0.028165
0.028165 1.000000 0.028165
0.028165 1.000000 0.028165
0.028165 1.000000 0.028165
0.043654 1.000000 0.027909
0.130607 1.000000 0.026485
0.215712 1.000000 0.025106
0.299249 1.000000 0.023766
0.381609 1.000000 0.022460
0.463267 1.000000 0.021178
0.544764 1.000000 0.019913
0.626684 1.000000 0.018655
0.709638 1.000000 0.017395
0.794254 1.000000 0.016125
0.881155 1.000000 0.014836
0.970952 1.000000 0.013520
1.000000 1.000000 0.013014
0.093000 0.093000 0.093000
0.093000 0.093000 0.093000
0.093000 0.093000 0.093000
0.093000 0.093000 0.093000
0.111591 0.091845 0.091845
0.214073 0.085875 0.085875
0.311279 0.080883 0.080883
0.403707 0.076803 0.076803
0.491930 0.073576 0.073576
0.576551 0.071159 0.071159
0.658170 0.069525 0.069525
0.737352 0.068667 0.068667
0.814609 0.068601 0.068601
0.890371 0.069368 0.069368
0.964979 0.071035 0.071035
1.000000 0.072230 0.072230
1.000000 0.071632 0.071632
0.093000 0.093000 0.093000
0.093000 0.093000 0.093000
0.093000 0.093000 0.093000
0.093000 0.093000 0.093000
0.111591 0.091845 0.091845
0.214073 0.085875 0.085875
0.311279 0.080883 0.080883
0.403707 0.076803 0.076803
0.491930 0.073576 0.073576
0.576551 0.071159 0.071159
0.658170 0.069525 0.069525
0.737352 0.068667 0.068667
0.814609 0.068601 0.068601
0.890371 0.069368 0.069368
0.964979 0.071035 0.071035
1.000000 0.072230 0.072230
1.000000 0.071632 0.071632
0.093000 0.093000 0.093000
0.093000 0.093000 0.093000
0.093000 0.093000 0.093000
0.093000 0.093000 0.093000
0.111591 0.091845 0.091845
0.214073 0.085875 0.085875
0.311279 0.080883 0.080883
0.403707 0.076803 0.076803
0.491930 0.073576 0.073576
0.576551 0.071159 0.071159
0.658170 0.069525 0.069525
0.737352 0.068667 0.068667
0.814609 0.068601 0.068601
0.890371 0.069368 0.069368
0.964979 0.071035 0.071035
1.000000 0.072230 0.072230
1.000000 0.071632 0.071632
0.093000 0.093000 0.093000
0.093000 0.093000 0.093000
0.093000 0.093000 0.093000
0.093000 0.093000 0.093000
0.111591 0.091845 0.091845
0.214073 0.085875 0.085875
0.311279 0.080883 0.080883
0.403707 0.076803 0.076803
0.491930 0.073576 0.073576
0.576551 0.071159 0.071159
0.658170 0.069525 0.069525
0.737352 0.068667 0.068667
0.814609 0.068601 0.068601
0.890371 0.069368 0.069368
0.964979 0.071035 0.071035
1.000000 0.072230 0.072230
1.000000 0.071632 0.071632
0.089113 0.108860 0.089113
0.089113 0.108860 0.089113
0.089113 0.108860 0.089113
0.089113 0.108860 0.089113
0.107704 0.107704 0.087958
0.210451 0.101630 0.082253
0.307915 0.096535 0.077519
0.400597 0.092354 0.073692
0.489070 0.089027 0.070716
0.573939 0.086511 0.068548
0.655806 0.084778 0.067162
0.735238 0.083821 0.066553
0.812748 0.083654 0.066740
0.888768 0.084319 0.067766
0.963641 0.085880 0.069697
1.000000 0.087044 0.071126
1.000000 0.086445 0.070530
0.069032 0.197230 0.069032
0.069032 0.197230 0.069032
0.069032 0.197230 0.069032
0.069032 0.197230 0.069032
0.087333 0.196153 0.067955
0.190106 0.190106 0.061908
0.289021 0.184433 0.058626
0.383129 0.179683 0.056225
0.473008 0.175797 0.054655
0.559273 0.172726 0.053882
0.642534 0.170438 0.053889
0.723368 0.168922 0.054682
0.802297 0.168190 0.056290
0.879767 0.168277 0.058764
0.956130 0.169245 0.062185
1.000000 0.170198 0.065035
1.000000 0.169596 0.064450
0.052239 0.282634 0.052239
0.052239 0.282634 0.052239
0.052239 0.282634 0.052239
0.052239 0.282634 0.052239
0.070255 0.281634 0.051238
0.171429 0.276018 0.045622
0.270518 0.270518 0.040122
0.366021 0.265212 0.039117
0.457278 0.260778 0.038925
0.544910 0.257162 0.039518
0.629535 0.254330 0.040890
0.711741 0.252268 0.043056
0.792061 0.250983 0.046054
0.870951 0.250504 0.049948
0.948773 0.250891 0.054829
1.000000 0.251574 0.059242
1.000000 0.250967 0.058667
0.038512 0.365416 0.038512
0.038512 0.365416 0.038512
0.038512 0.365416 0.038512
0.038512 0.365416 0.038512
0.056248 0.364491 0.037587
0.155853 0.359299 0.032394
0.253404 0.354213 0.027309
0.349219 0.349219 0.022314
0.441829 0.344245 0.023475
0.530802 0.340095 0.025411
0.616768 0.336730 0.028123
0.700322 0.334131 0.031637
0.782008 0.332301 0.036001
0.862293 0.331268 0.041290
0.941547 0.331084 0.047603
1.000000 0.331438 0.053718
1.000000 0.330828 0.053154
0.027657 0.446011 0.027657
0.027657 0.446011 0.027657
0.027657 0.446011 0.027657
0.027657 0.446011 0.027657
0.045118 0.445161 0.026807
0.143175 0.440386 0.022033
0.239209 0.435710 0.017357
0.333534 0.431118 0.012764
0.426587 0.426587 0.008233
0.516885 0.421909 0.011493
0.604173 0.418018 0.015528
0.689057 0.414889 0.020372
0.772091 0.412523 0.026084
0.853751 0.410942 0.032748
0.934418 0.410195 0.040474
1.000000 0.410164 0.048430
1.000000 0.409551 0.047877
0.019526 0.524918 0.019526
0.019526 0.524918 0.019526
0.019526 0.524918 0.019526
0.019526 0.524918 0.019526
0.036714 0.524142 0.018750
0.133234 0.519782 0.014391
0.227764 0.515513 0.010121
0.320611 0.511319 0.005927
0.412206 0.507182 0.001790
0.503077 0.503077 0.000000
0.591677 0.498663 0.003032
0.677881 0.495009 0.009196
0.762252 0.492110 0.016245
0.845276 0.489986 0.024273
0.927346 0.488681 0.033402
1.000000 0.488210 0.043343
1.000000 0.487592 0.042800
0.014029 0.602673 0.014029
0.014029 0.602673 0.014029
0.014029 0.602673 0.014029
0.014029 0.602673 0.014029
0.030943 0.601971 0.013326
0.125929 0.598026 0.009381
0.218957 0.594162 0.005517
0.310328 0.590366 0.001722
0.400467 0.586622 0.000000
0.489894 0.582908 0.000000
0.579199 0.579199 0.000000
0.666720 0.575020 0.000000
0.752426 0.571589 0.006419
0.836813 0.568922 0.015810
0.920284 0.567059 0.026340
1.000000 0.566069 0.038163
1.000000 0.565468 0.037887
0.011142 0.679828 0.011142
0.011142 0.679828 0.011142
0.011142 0.679828 0.011142
0.011142 0.679828 0.011142
0.027782 0.679199 0.010514
0.121225 0.675671 0.006985
0.212741 0.672215 0.003529
0.302628 0.668820 0.000135
0.391303 0.665471 0.000000
0.479277 0.662149 0.000000
0.567131 0.658832 0.000000
0.655495 0.655495 0.000000
0.742543 0.651529 0.000000
0.828301 0.648316 0.007298
0.913180 0.645893 0.019236
0.997480 0.644322 0.032516
1.000000 0.643737 0.033105
0.010921 0.756928 0.010921
0.010921 0.756928 0.010921
0.010921 0.756928 0.010921
0.010921 0.756928 0.010921
0.027282 0.756375 0.010368
0.119162 0.753269 0.007261
0.209147 0.750226 0.004219
0.297530 0.747238 0.001231
0.384722 0.744290 0.000000
0.471224 0.741365 0.000000
0.557607 0.738444 0.000000
0.644492 0.735506 0.000000
0.732530 0.732530 0.000000
0.819676 0.728764 0.000000
0.905983 0.725772 0.012039
0.991758 0.723614 0.026794
1.000000 0.722982 0.028422
0.013502 0.834505 0.013502
0.013502 0.834505 0.013502
0.013502 0.834505 0.013502
0.013502 0.834505 0.013502
0.029579 0.834028 0.013025
0.119863 0.831353 0.010350
0.208285 0.828732 0.007729
0.295133 0.826158 0.005155
0.380810 0.823619 0.002616
0.465810 0.821100 0.000097
0.550693 0.818584 0.000000
0.636069 0.816054 0.000000
0.722577 0.813490 0.000000
0.810873 0.810873 0.000000
0.898636 0.807301 0.004692
0.985918 0.804543 0.020954
1.000000 0.803802 0.023811
0.019108 0.913052 0.019108
0.019108 0.913052 0.019108
0.019108 0.913052 0.019108
0.019108 0.913052 0.019108
0.034893 0.912654 0.018710
0.123537 0.910421 0.016477
0.210353 0.908234 0.014290
0.295623 0.906086 0.012142
0.379744 0.903967 0.010023
0.463200 0.901865 0.007921
0.546541 0.899766 0.005822
0.630367 0.897654 0.003710
0.715304 0.895515 0.001571
0.801995 0.893331 0.000000
0.891087 0.891087 0.000000
0.979917 0.887712 0.014953
1.000000 0.886793 0.019249
0.028053 0.993017 0.028053
0.028053 0.993017 0.028053
0.028053 0.993017 0.028053
0.028053 0.993017 0.028053
0.043536 0.992701 0.027737
0.130484 0.990926 0.025962
0.215640 0.989187 0.024223
0.299279 0.987480 0.022516
0.381790 0.985795 0.020831
0.463650 0.984124 0.019160
0.545397 0.982455 0.017491
0.627619 0.980776 0.015813
0.710931 0.979076 0.014112
0.795964 0.977340 0.012376
0.883351 0.975556 0.010592
0.973711 0.973711 0.008747
1.000000 0.972535 0.014722
0.028165 1.000000 0.028165
0.028165 1.000000 0.028165
0.028165 1.000000 0.028165
0.028165 1.000000 0.028165
0.043654 1.000000 0.027909
0.130607 1.000000 0.026485
0.215712 1.000000 0.025106
0.299249 1.000000 0.023766
0.381609 1.000000 0.022460
0.463267 1.000000 0.021178
0.544764 1.000000 0.019913
0.626684 1.000000 0.018655
0.709638 1.000000 0.017395
0.794254 1.000000 0.016125
0.881155 1.000000 0.014836
0.970952 1.000000 0.013520
1.000000 1.000000 0.013014
0.093000 0.093000 0.093000
0.093000 0.093000 0.093000
0.093000 0.093000 0.093000
0.093000 0.093000 0.093000
0.111591 0.091845 0.091845
0.214073 0.085875 0.085875
0.311279 0.080883 0.080883
0.403707 0.076803 0.076803
0.491930 0.073576 0.073576
0.576551 0.071159 0.071159
0.658170 0.069525 0.069525
0.737352 0.068667 0.068667
0.814609 0.068601 0.068601
0.890371 0.069368 0.069368
0.964979 0.071035 0.071035
1.000000 0.072230 0.072230
1.000000 0.071632 0.071632
0.093000 0.093000 0.093000
0.093000 0.093000 0.093000
0.093000 0.093000 0.093000
0.093000 0.093000 0.093000
0.111591 0.091845 0.091845
0.214073 0.085875 0.085875
0.311279 0.080883 0.080883
0.403707 0.076803 0.076803
0.491930 0.073576 0.073576
0.576551 0.071159 0.071159
0.658170 0.069525 0.069525
0.737352 0.068667 0.068667
0.814609 0.068601 0.068601
0.890371 0.069368 0.069368
0.964979 0.071035 0.071035
1.000000 0.072230 0.072230
1.000000 0.071632 0.071632
0.093000 0.093000 0.093000
0.093000 0.093000 0.093000
0.093000 0.093000 0.093000
0.093000 0.093000 0.093000
0.111591 0.091845 0.091845
0.214073 0.085875 0.085875
0.311279 0.080883 0.080883
0.403707 0.076803 0.076803
0.491930 0.073576 0.073576
0.576551 0.071159 0.071159
0.658170 0.069525 0.069525
0.737352 0.068667 0.068667
0.814609 0.068601 0.068601
0.890371 0.069368 0.069368
0.964979 0.071035 0.071035
1.000000 0.072230 0.072230
1.000000 0.071632 0.071632
0.093000 0.093000 0.093000
0.093000 0.093000 0.093000
0.093000 0.093000 0.093000
0.093000 0.093000 0.093000
0.111591 0.091845 0.091845
0.214073 0.085875 0.085875
0.311279 0.080883 0.080883
0.403707 0.076803 0.076803
0.491930 0.073576 0.073576
0.576551 0.071159 0.071159
0.658170 0.069525 0.069525
0.737352 0.068667 0.068667
0.814609 0.068601 0.068601
0.890371 0.069368 0.069368
0.964979 0.071035 0.071035
1.000000 0.072230 0.072230
1.000000 0.071632 0.071632
0.089113 0.108860 0.089113
0.089113 0.108860 0.089113
0.089113 0.108860 0.089113
0.089113 0.108860 0.089113
0.107704 0.107704 0.087958
0.210451 0.101630 0.082253
0.307915 0.096535 0.077519
0.400597 0.092354 0.073692
0.489070 0.089027 0.070716
0.573939 0.086511 0.068548
0.655806 0.084778 0.067162
0.735238 0.083821 0.066553
0.812748 0.083654 0.066740
0.888768 0.084319 0.067766
0.963641 0.085880 0.069697
1.000000 0.087044 0.071126
1.000000 0.086445 0.070530
0.069032 0.197230 0.069032
0.069032 0.197230 0.069032
0.069032 0.197230 0.069032
0.069032 0.197230 0.069032
0.087333 0.196153 0.067955
0.190106 0.190106 0.061908
0.289021 0.184433 0.058626
0.383129 0.179683 0.056225
0.473008 0.175797 0.054655
0.559273 0.172726 0.053882
0.642534 0.170438 0.053889
0.723368 0.168922 0.054682
0.802297 0.168190 0.056290
0.879767 0.168277 0.058764
0.956130 0.169245 0.062185
1.000000 0.170198 0.065035
1.000000 0.169596 0.064450
0.052239 0.282634 0.052239
0.052239 0.282634 0.052239
0.052239 0.282634 0.052239
0.052239 0.282634 0.052239
0.070255 0.281634 0.051238
0.171429 0.276018 0.045622
0.270518 0.270518 0.040122
0.366021 0.265212 0.039117
0.457278 0.260778 0.038925
0.544910 0.257162 0.039518
0.629535 0.254330 0.040890
0.711741 0.252268 0.043056
0.792061 0.250983 0.046054
0.870951 0.250504 0.049948
0.948773 0.250891 0.054829
1.000000 0.251574 0.059242
1.000000 0.250967 0.058667
0.038512 0.365416 0.038512
0.038512 0.365416 0.038512
0.038512 0.365416 0.038512
0.038512 0.365416 0.038512
0.056248 0.364491 0.037587
0.155853 0.359299 0.032394
0.253404 0.354213 0.027309
0.349219 0.349219 0.022314
0.441829 0.344245 0.023475
0.530802 0.340095 0.025411
0.616768 0.336730 0.028123
0.700322 0.334131 0.031637
0.782008 0.332301 0.036001
0.862293 0.331268 0.041290
0.941547 0.331084 0.047603
1.000000 0.331438 0.053718
1.000000 0.330828 0.053154
0.027657 0.446011 0.027657
0.027657 0.446011 0.027657
0.027657 0.446011 0.027657
0.027657 0.446011 0.027657
0.045118 0.445161 0.026807
0.143175 0.440386 0.022033
0.239209 0.435710 0.017357
0.333534 0.431118 0.012764
0.426587 0.426587 0.008233
0.516885 0.421909 0.011493
0.604173 0.418018 0.015528
0.689057 0.414889 0.020372
0.772091 0.412523 0.026084
0.853751 0.410942 0.032748
0.934418 0.410195 0.040474
1.000000 0.410164 0.048430
1.000000 0.409551 0.047877
0.019526 0.524918 0.019526
0.019526 0.524918 0.019526
0.019526 0.524918 0.019526
0.019526 0.524918 0.019526
0.036714 0.524142 0.018750
0.133234 0.519782 0.014391
0.227764 0.515513 0.010121
0.320611 0.511319 0.005927
0.412206 0.507182 0.001790
0.503077 0.503077 0.000000
0.591677 0.498663 0.003032
0.677881 0.495009 0.009196
0.762252 0.492110 0.016245
0.845276 0.489986 0.024273
0.927346 0.488681 0.033402
1.000000 0.488210 0.043343
1.000000 0.487592 0.042800
0.014029 0.602673 0.014029
0.014029 0.602673 0.014029
0.014029 0.602673 0.014029
0.014029 0.602673 0.014029
0.030943 0.601971 0.013326
0.125929 0.598026 0.009381
0.218957 0.594162 0.005517
0.310328 0.590366 0.001722
0.400467 0.586622 0.000000
0.489894 0.582908 0.000000
0.579199 0.579199 0.000000
0.666720 0.575020 0.000000
0.752426 0.571589 0.006419
0.836813 0.568922 0.015810
0.920284 0.567059 0.026340
1.000000 0.566069 0.038163
1.000000 0.565468 0.037887
0.011142 0.679828 0.011142
0.011142 0.679828 0.011142
0.011142 0.679828 0.011142
0.011142 0.679828 0.011142
0.027782 0.679199 0.010514
0.121225 0.675671 0.006985
0.212741 0.672215 0.003529
0.302628 0.668820 0.000135
0.391303 0.665471 0.000000
0.479277 0.662149 0.000000
0.567131 0.658832 0.000000
0.655495 0.655495 0.000000
0.742543 0.651529 0.000000
0.828301 0.648316 0.007298
0.913180 0.645893 0.019236
0.997480 0.644322 0.032516
1.000000 0.643737 0.033105
0.010921 0.756928 0.010921
0.010921 0.756928 0.010921
0.010921 0.756928 0.010921
0.010921 0.756928 0.010921
0.027282 0.756375 0.010368
0.119162 0.753269 0.007261
0.209147 0.750226 0.004219
0.297530 0.747238 0.001231
0.384722 0.744290 0.000000
0.471224 0.741365 0.000000
0.557607 0.738444 0.000000
0.644492 0.735506 0.000000
0.732530 0.732530 0.000000
0.819676 0.728764 0.000000
0.905983 0.725772 0.012039
0.991758 0.723614 0.026794
1.000000 0.722982 0.028422
0.013502 0.834505 0.013502
0.013502 0.834505 0.013502
0.013502 0.834505 0.013502
0.013502 0.834505 0.013502
0.029579 0.834028 0.013025
0.119863 0.831353 0.010350
0.208285 0.828732 0.007729
0.295133 0.826158 0.005155
0.380810 0.823619 0.002616
0.465810 0.821100 0.000097
0.550693 0.818584 0.000000
0.636069 0.816054 0.000000
0.722577 0.813490 0.000000
0.810873 0.810873 0.000000
0.898636 0.807301 0.004692
0.985918 0.804543 0.020954
1.000000 0.803802 0.023811
0.019108 0.913052 0.019108
0.019108 0.913052 0.019108
0.019108 0.913052 0.019108
0.019108 0.913052 0.019108
0.034893 0.912654 0.018710
0.123537 0.910421 0.016477
0.210353 0.908234 0.014290
0.295623 0.906086 0.012142
0.379744 0.903967 0.010023
0.463200 0.901865 0.007921
0.546541 0.899766 0.005822
0.630367 0.897654 0.003710
0.715304 0.895515 0.001571
0.801995 0.893331 0.000000
0.891087 0.891087 0.000000
0.979917 0.887712 0.014953
1.000000 0.886793 0.019249
0.028053 0.993017 0.028053
0.028053 0.993017 0.028053
0.028053 0.993017 0.028053
0.028053 0.993017 0.028053
0.043536 0.992701 0.027737
0.130484 0.990926 0.025962
0.215640 0.989187 0.024223
0.299279 0.987480 0.022516
0.381790 0.985795 0.020831
0.463650 0.984124 0.019160
0.545397 0.982455 0.017491
0.627619 0.980776 0.015813
0.710931 0.979076 0.014112
0.795964 0.977340 0.012376
0.883351 0.975556 0.010592
0.973711 0.973711 0.008747
1.000000 0.972535 0.014722
0.028165 1.000000 0.028165
0.028165 1.000000 0.028165
0.028165 1.000000 0.028165
0.028165 1.000000 0.028165
0.043654 1.000000 0.027909
0.130607 1.000000 0.026485
0.215712 1.000000 0.025106
0.299249 1.000000 0.023766
0.381609 1.000000 0.022460
0.463267 1.000000 0.021178
0.544764 1.000000 0.019913
0.626684 1.000000 0.018655
0.709638 1.000000 0.017395
0.794254 1.000000 0.016125
0.881155 1.000000 0.014836
0.970952 1.000000 0.013520
1.000000 1.000000 0.013014
0.093000 0.093000 0.093000
0.093000 0.093000 0.093000
0.093000 0.093000 0.093000
0.093000 0.093000 0.093000
0.111591 0.091845 0.091845
0.214073 0.085875 0.085875
0.311279 0.080883 0.080883
0.403707 0.076803 0.076803
0.491930 0.073576 0.073576
0.576551 0.071159 0.071159
0.658170 0.069525 0.069525
0.737352 0.068667 0.068667
0.814609 0.068601 0.068601
0.890371 0.069368 0.069368
