MutationJam/Assets/Extern/Darkbringer Shader/LUTs/my-custom-look (2).cube
# My Custom Look
# Custom LUT built with AICreate
# Generated by AICreate LUT Generator — size=17, domain=[0,1]
TITLE "My Custom Look"
LUT_3D_SIZE 9
DOMAIN_MIN 0.0 0.0 0.0
DOMAIN_MAX 1.0 1.0 1.0
0.093000 0.093000 0.093000
0.093000 0.093000 0.093000
0.111591 0.091845 0.091845
0.311279 0.080883 0.080883
0.491930 0.073576 0.073576
0.658170 0.069525 0.069525
0.814609 0.068601 0.068601
0.964979 0.071035 0.071035
1.000000 0.071632 0.071632
0.093000 0.093000 0.093000
0.093000 0.093000 0.093000
0.111591 0.091845 0.091845
0.311279 0.080883 0.080883
0.491930 0.073576 0.073576
0.658170 0.069525 0.069525
0.814609 0.068601 0.068601
0.964979 0.071035 0.071035
1.000000 0.071632 0.071632
0.089113 0.108860 0.089113
0.089113 0.108860 0.089113
0.107704 0.107704 0.087958
0.307915 0.096535 0.077519
0.489070 0.089027 0.070716
0.655806 0.084778 0.067162
0.812748 0.083654 0.066740
0.963641 0.085880 0.069697
1.000000 0.086445 0.070530
0.052239 0.282634 0.052239
0.052239 0.282634 0.052239
0.070255 0.281634 0.051238
0.270518 0.270518 0.040122
0.457278 0.260778 0.038925
0.629535 0.254330 0.040890
0.792061 0.250983 0.046054
0.948773 0.250891 0.054829
1.000000 0.250967 0.058667
0.027657 0.446011 0.027657
0.027657 0.446011 0.027657
0.045118 0.445161 0.026807
0.239209 0.435710 0.017357
0.426587 0.426587 0.008233
0.604173 0.418018 0.015528
0.772091 0.412523 0.026084
0.934418 0.410195 0.040474
1.000000 0.409551 0.047877
0.014029 0.602673 0.014029
0.014029 0.602673 0.014029
0.030943 0.601971 0.013326
0.218957 0.594162 0.005517
0.400467 0.586622 0.000000
0.579199 0.579199 0.000000
0.752426 0.571589 0.006419
0.920284 0.567059 0.026340
1.000000 0.565468 0.037887
0.010921 0.756928 0.010921
0.010921 0.756928 0.010921
0.027282 0.756375 0.010368
0.209147 0.750226 0.004219
0.384722 0.744290 0.000000
0.557607 0.738444 0.000000
0.732530 0.732530 0.000000
0.905983 0.725772 0.012039
1.000000 0.722982 0.028422
0.019108 0.913052 0.019108
0.019108 0.913052 0.019108
0.034893 0.912654 0.018710
0.210353 0.908234 0.014290
0.379744 0.903967 0.010023
0.546541 0.899766 0.005822
0.715304 0.895515 0.001571
0.891087 0.891087 0.000000
1.000000 0.886793 0.019249
0.028165 1.000000 0.028165
0.028165 1.000000 0.028165
0.043654 1.000000 0.027909
0.215712 1.000000 0.025106
0.381609 1.000000 0.022460
0.544764 1.000000 0.019913
0.709638 1.000000 0.017395
0.881155 1.000000 0.014836
1.000000 1.000000 0.013014
0.093000 0.093000 0.093000
0.093000 0.093000 0.093000
0.111591 0.091845 0.091845
0.311279 0.080883 0.080883
0.491930 0.073576 0.073576
0.658170 0.069525 0.069525
0.814609 0.068601 0.068601
0.964979 0.071035 0.071035
1.000000 0.071632 0.071632
0.093000 0.093000 0.093000
0.093000 0.093000 0.093000
0.111591 0.091845 0.091845
0.311279 0.080883 0.080883
0.491930 0.073576 0.073576
0.658170 0.069525 0.069525
0.814609 0.068601 0.068601
0.964979 0.071035 0.071035
1.000000 0.071632 0.071632
0.089113 0.108860 0.089113
0.089113 0.108860 0.089113
0.107704 0.107704 0.087958
0.307915 0.096535 0.077519
0.489070 0.089027 0.070716
0.655806 0.084778 0.067162
0.812748 0.083654 0.066740
0.963641 0.085880 0.069697
1.000000 0.086445 0.070530
0.052239 0.282634 0.052239
0.052239 0.282634 0.052239
0.070255 0.281634 0.051238
0.270518 0.270518 0.040122
0.457278 0.260778 0.038925
0.629535 0.254330 0.040890
0.792061 0.250983 0.046054
0.948773 0.250891 0.054829
1.000000 0.250967 0.058667
0.027657 0.446011 0.027657
0.027657 0.446011 0.027657
0.045118 0.445161 0.026807
0.239209 0.435710 0.017357
0.426587 0.426587 0.008233
0.604173 0.418018 0.015528
0.772091 0.412523 0.026084
0.934418 0.410195 0.040474
1.000000 0.409551 0.047877
0.014029 0.602673 0.014029
0.014029 0.602673 0.014029
0.030943 0.601971 0.013326
0.218957 0.594162 0.005517
0.400467 0.586622 0.000000
0.579199 0.579199 0.000000
0.752426 0.571589 0.006419
0.920284 0.567059 0.026340
1.000000 0.565468 0.037887
0.010921 0.756928 0.010921
0.010921 0.756928 0.010921
0.027282 0.756375 0.010368
0.209147 0.750226 0.004219
0.384722 0.744290 0.000000
0.557607 0.738444 0.000000
0.732530 0.732530 0.000000
0.905983 0.725772 0.012039
1.000000 0.722982 0.028422
0.019108 0.913052 0.019108
0.019108 0.913052 0.019108
0.034893 0.912654 0.018710
0.210353 0.908234 0.014290
0.379744 0.903967 0.010023
0.546541 0.899766 0.005822
0.715304 0.895515 0.001571
0.891087 0.891087 0.000000
1.000000 0.886793 0.019249
0.028165 1.000000 0.028165
0.028165 1.000000 0.028165
0.043654 1.000000 0.027909
0.215712 1.000000 0.025106
0.381609 1.000000 0.022460
0.544764 1.000000 0.019913
0.709638 1.000000 0.017395
0.881155 1.000000 0.014836
1.000000 1.000000 0.013014
0.092608 0.092608 0.112354
0.092608 0.092608 0.112354
0.111199 0.091452 0.111199
0.310940 0.080544 0.099560
0.491641 0.073288 0.091599
0.657931 0.069286 0.086903
0.814421 0.068413 0.085328
0.964844 0.070900 0.087082
1.000000 0.071520 0.087439
0.092608 0.092608 0.112354
0.092608 0.092608 0.112354
0.111199 0.091452 0.111199
0.310940 0.080544 0.099560
0.491641 0.073288 0.091599
0.657931 0.069286 0.086903
0.814421 0.068413 0.085328
0.964844 0.070900 0.087082
1.000000 0.071520 0.087439
0.088721 0.108467 0.108467
0.088721 0.108467 0.108467
0.107312 0.107312 0.107312
0.308150 0.096040 0.096040
0.489911 0.088433 0.088433
0.657245 0.084087 0.084087
0.814790 0.082864 0.082864
0.966313 0.084987 0.084987
1.000000 0.085519 0.085519
0.051899 0.282295 0.070915
0.051899 0.282295 0.070915
0.069393 0.281503 0.069393
0.270231 0.270231 0.058121
0.457598 0.260392 0.056120
0.630451 0.253847 0.057293
0.793581 0.250401 0.061656
0.950922 0.250206 0.069596
1.000000 0.250242 0.073088
0.027368 0.445722 0.045679
0.027368 0.445722 0.045679
0.043803 0.445281 0.043803
0.238469 0.435675 0.034197
0.426402 0.426402 0.024924
0.604584 0.417735 0.031427
0.773107 0.412142 0.041181
0.936063 0.409711 0.054737
1.000000 0.409020 0.061749
0.013790 0.602435 0.031407
0.013790 0.602435 0.031407
0.029181 0.602339 0.029181
0.217770 0.594374 0.021216
0.399836 0.586685 0.013527
0.579114 0.579114 0.005956
0.752945 0.571406 0.021020
0.921432 0.566773 0.040106
1.000000 0.565128 0.051219
0.010733 0.756741 0.027647
0.010733 0.756741 0.027647
0.025069 0.756994 0.025069
0.207509 0.750690 0.018764
0.383638 0.744603 0.012678
0.557071 0.738610 0.006685
0.732546 0.732546 0.000621
0.906628 0.725685 0.025303
1.000000 0.722835 0.041207
0.018973 0.912917 0.035155
0.018973 0.912917 0.035155
0.032208 0.913534 0.032208
0.208244 0.908959 0.027633
0.378190 0.904542 0.023216
0.545534 0.900193 0.018867
0.714850 0.895793 0.014467
0.891209 0.891209 0.009883
1.000000 0.886847 0.031465
0.028078 1.000000 0.043824
0.028078 1.000000 0.043824
0.040705 1.000000 0.040705
0.213326 1.000000 0.037726
0.379767 1.000000 0.034911
0.543458 1.000000 0.032197
0.708875 1.000000 0.029511
0.880955 1.000000 0.026776
1.000000 1.000000 0.024831
0.088885 0.088885 0.319281
0.088885 0.088885 0.319281
0.106901 0.087885 0.318281
0.307164 0.076768 0.307164
0.488432 0.070078 0.291931
0.655279 0.066634 0.280074
0.812332 0.066325 0.271253
0.963343 0.069399 0.265461
1.000000 0.070285 0.263097
0.088885 0.088885 0.319281
0.088885 0.088885 0.319281
0.106901 0.087885 0.318281
0.307164 0.076768 0.307164
0.488432 0.070078 0.291931
0.655279 0.066634 0.280074
0.812332 0.066325 0.271253
0.963343 0.069399 0.265461
1.000000 0.070285 0.263097
0.085521 0.104537 0.315917
0.085521 0.104537 0.315917
0.103484 0.103484 0.315594
0.304322 0.092212 0.304322
0.486649 0.085171 0.289443
0.654540 0.081382 0.277936
0.812649 0.080723 0.269468
0.964759 0.083433 0.264044
1.000000 0.084233 0.261818
0.048124 0.278520 0.278520
0.048124 0.278520 0.278520
0.065565 0.277675 0.277675
0.266403 0.266403 0.266403
0.460507 0.255463 0.255463
0.639996 0.247835 0.247835
0.809838 0.243292 0.243292
0.974171 0.241956 0.241956
1.000000 0.241536 0.241536
0.024159 0.442513 0.246012
0.024159 0.442513 0.246012
0.040541 0.442019 0.244812
0.229601 0.434645 0.229601
0.423706 0.423706 0.218661
0.608523 0.413955 0.216362
0.783758 0.407265 0.217211
0.953706 0.403693 0.221491
1.000000 0.402468 0.224097
0.011138 0.599783 0.224578
0.011138 0.599783 0.224578
0.026476 0.599634 0.223030
0.203939 0.596100 0.203939
0.392177 0.586744 0.194584
0.577532 0.577532 0.185372
0.758076 0.568728 0.191530
0.933555 0.562953 0.201340
1.000000 0.560699 0.207562
0.008645 0.754652 0.213573
0.008645 0.754652 0.213573
0.022928 0.754853 0.211672
0.188657 0.755203 0.188657
0.370958 0.747450 0.180904
0.550468 0.739816 0.173270
0.732092 0.732092 0.165546
0.913166 0.724089 0.180952
1.000000 0.720553 0.191473
0.017472 0.911416 0.213534
0.017472 0.911416 0.213534
0.030655 0.911981 0.211265
0.184162 0.916377 0.184162
0.360280 0.910293 0.178078
0.533701 0.904303 0.172088
0.709165 0.898242 0.166028
0.891930 0.891930 0.159715
1.000000 0.886801 0.175401
0.027117 1.000000 0.217836
0.027117 1.000000 0.217836
0.039686 1.000000 0.215381
0.186134 1.000000 0.186134
0.358623 1.000000 0.181438
0.528269 1.000000 0.176872
0.699711 1.000000 0.172311
0.878068 1.000000 0.167624
1.000000 1.000000 0.164298
0.086404 0.086404 0.504757
0.086404 0.086404 0.504757
0.103864 0.085553 0.503907
0.297956 0.076103 0.494457
0.485333 0.066980 0.485333
0.652719 0.064074 0.466564
0.810316 0.064309 0.450748
0.961894 0.067950 0.437670
1.000000 0.069100 0.432595
0.086404 0.086404 0.504757
0.086404 0.086404 0.504757
0.103864 0.085553 0.503907
0.297956 0.076103 0.494457
0.485333 0.066980 0.485333
0.652719 0.064074 0.466564
0.810316 0.064309 0.450748
0.961894 0.067950 0.437670
1.000000 0.069100 0.432595
0.083544 0.101855 0.501897
0.083544 0.101855 0.501897
0.100901 0.100901 0.502379
0.295567 0.091295 0.492773
0.483500 0.082022 0.483500
0.651929 0.078771 0.465079
0.810582 0.078656 0.449617
0.963259 0.081933 0.436907
1.000000 0.082997 0.431933
0.051752 0.273605 0.470106
0.051752 0.273605 0.470106
0.068587 0.272859 0.470065
0.262688 0.262688 0.467732
0.456792 0.251748 0.456792
0.636818 0.244658 0.442251
0.807206 0.240659 0.430713
0.972105 0.239890 0.422091
1.000000 0.239746 0.418518
0.021061 0.439414 0.439414
0.021061 0.439414 0.439414
0.037391 0.438869 0.438869
0.225886 0.430930 0.430930
0.419990 0.419990 0.419990
0.611213 0.409194 0.409194
0.792928 0.401446 0.401446
0.969627 0.396770 0.396770
1.000000 0.395019 0.395019
0.008578 0.597222 0.411068
0.008578 0.597222 0.411068
0.023865 0.597023 0.410174
0.200762 0.592923 0.398355
0.383671 0.585689 0.383671
0.574893 0.574893 0.372874
0.761918 0.565030 0.370435
0.944146 0.558153 0.371290
1.000000 0.555298 0.372685
0.006629 0.752636 0.393068
0.006629 0.752636 0.393068
0.020861 0.752786 0.391821
0.186024 0.752570 0.376078
0.357604 0.749087 0.357604
0.542981 0.739869 0.348386
0.730542 0.730542 0.339059
0.918366 0.721436 0.345510
1.000000 0.717225 0.350730
0.016023 0.909967 0.385743
0.016023 0.909967 0.385743
0.029155 0.910481 0.384129
0.182096 0.914311 0.364297
0.341877 0.914733 0.341877
0.521165 0.907159 0.334302
0.702566 0.899495 0.326639
0.891513 0.891513 0.318657
1.000000 0.885633 0.328548
0.026197 1.000000 0.385744
0.026197 1.000000 0.385744
0.038709 1.000000 0.383929
0.184533 1.000000 0.361806
0.337039 1.000000 0.337039
0.512435 1.000000 0.330685
0.689693 1.000000 0.324315
0.874109 1.000000 0.317742
1.000000 1.000000 0.313065
0.085028 0.085028 0.673672
0.085028 0.085028 0.673672
0.101942 0.084325 0.672970
0.289956 0.076516 0.665161
0.471466 0.068977 0.657621
0.650197 0.061553 0.650197
0.808331 0.062324 0.627494
0.960467 0.066523 0.607242
1.000000 0.067939 0.599415
0.085028 0.085028 0.673672
0.085028 0.085028 0.673672
0.101942 0.084325 0.672970
0.289956 0.076516 0.665161
0.471466 0.068977 0.657621
0.650197 0.061553 0.650197
0.808331 0.062324 0.627494
0.960467 0.066523 0.607242
1.000000 0.067939 0.599415
0.082664 0.100281 0.671309
0.082664 0.100281 0.671309
0.099425 0.099425 0.672583
0.288014 0.091460 0.664618
0.470080 0.083771 0.656929
0.649357 0.076200 0.649357
0.808547 0.076621 0.627007
0.961782 0.080456 0.607123
1.000000 0.081787 0.599362
0.056393 0.269833 0.645038
0.056393 0.269833 0.645038
0.072631 0.269185 0.645789
0.260097 0.260097 0.652258
0.448335 0.250742 0.642902
0.633690 0.241529 0.633690
0.804613 0.238067 0.615265
0.970070 0.237856 0.599469
1.000000 0.237990 0.592709
0.031031 0.433520 0.619675
0.031031 0.433520 0.619675
0.046764 0.433073 0.619922
0.228624 0.426217 0.620785
0.416324 0.416324 0.618343
0.607546 0.405528 0.607546
0.789798 0.398315 0.592910
0.967054 0.394198 0.581061
1.000000 0.392735 0.575738
0.006057 0.594701 0.594701
0.006057 0.594701 0.594701
0.021294 0.594452 0.594452
0.197634 0.589794 0.589794
0.380004 0.582023 0.582023
0.571226 0.571226 0.571226
0.764632 0.560321 0.560321
0.953508 0.552358 0.552358
1.000000 0.548900 0.548900
0.004644 0.750651 0.569814
0.004644 0.750651 0.569814
0.018825 0.750751 0.569211
0.183431 0.749978 0.560629
0.354474 0.745956 0.549069
0.534541 0.738852 0.534541
0.727947 0.727947 0.523636
0.922418 0.717756 0.521269
1.000000 0.712868 0.521168
0.014596 0.908540 0.555315
0.014596 0.908540 0.555315
0.027678 0.909004 0.554345
0.180061 0.912276 0.541674
0.339304 0.912161 0.526167
0.507753 0.908903 0.507753
0.694999 0.899661 0.498512
0.890035 0.890035 0.488885
1.000000 0.883402 0.492969
0.025297 1.000000 0.550999
0.025297 1.000000 0.550999
0.037755 1.000000 0.549816
0.182963 1.000000 0.534705
0.334875 1.000000 0.516710
0.495719 1.000000 0.495719
0.678705 1.000000 0.487566
0.869086 1.000000 0.479138
1.000000 1.000000 0.473111
0.084714 0.084714 0.830721
0.084714 0.084714 0.830721
0.101075 0.084161 0.830168
0.282940 0.078012 0.824019
0.458514 0.072075 0.818083
0.631400 0.066230 0.812237
0.806323 0.060315 0.806323
0.959023 0.065079 0.778812
1.000000 0.066771 0.768118
0.084714 0.084714 0.830721
0.084714 0.084714 0.830721
0.101075 0.084161 0.830168
0.282940 0.078012 0.824019
0.458514 0.072075 0.818083
0.631400 0.066230 0.812237
0.806323 0.060315 0.806323
0.959023 0.065079 0.778812
1.000000 0.066771 0.768118
0.082853 0.099767 0.828860
0.082853 0.099767 0.828860
0.099010 0.099010 0.830935
0.281450 0.092705 0.824631
0.457579 0.086619 0.818544
0.631012 0.080626 0.812551
0.806487 0.074562 0.806487
0.960288 0.078962 0.779345
1.000000 0.080570 0.768680
0.062167 0.267095 0.808174
0.062167 0.267095 0.808174
0.077801 0.266546 0.809727
0.258554 0.258554 0.825101
0.440856 0.250802 0.817348
0.620365 0.243167 0.809714
0.801990 0.235443 0.801990
0.968012 0.235797 0.778935
1.000000 0.236220 0.768870
0.042196 0.428636 0.788204
0.042196 0.428636 0.788204
0.057326 0.428287 0.789252
0.232473 0.422528 0.799020
0.413693 0.413693 0.805175
0.599069 0.404474 0.795957
0.786630 0.395148 0.786630
0.964452 0.391596 0.767522
1.000000 0.390432 0.758504
0.022532 0.587702 0.768539
0.022532 0.587702 0.768539
0.037165 0.587551 0.769090
0.206792 0.583990 0.773339
0.382682 0.577277 0.774165
0.567523 0.567523 0.771834
0.760929 0.556618 0.760929
0.950369 0.549220 0.745707
1.000000 0.546071 0.738170
0.002635 0.748643 0.748643
0.002635 0.748643 0.748643
0.016766 0.748692 0.748692
0.180808 0.747355 0.747355
0.351306 0.742789 0.742789
0.530838 0.735149 0.735149
0.724244 0.724244 0.724244
0.925440 0.712954 0.712954
1.000000 0.707369 0.707369
0.013152 0.907096 0.726885
0.013152 0.907096 0.726885
0.026183 0.907509 0.726566
0.178003 0.910218 0.721141
0.336702 0.909558 0.712629
0.504615 0.905764 0.701102
0.686265 0.898751 0.686265
0.887461 0.887461 0.674976
1.000000 0.880054 0.673083
0.024394 1.000000 0.718119
0.024394 1.000000 0.718119
0.036795 1.000000 0.717574
0.181380 1.000000 0.709560
0.332692 1.000000 0.698414
0.492943 1.000000 0.684169
0.666452 1.000000 0.666452
0.862870 1.000000 0.656146
1.000000 1.000000 0.648734
0.085541 0.085541 0.979485
0.085541 0.085541 0.979485
0.101325 0.085143 0.979087
0.276786 0.080723 0.974667
0.446177 0.076456 0.970400
0.612974 0.072254 0.966199
0.781736 0.068003 0.961947
0.957519 0.063575 0.957519
1.000000 0.065562 0.943751
0.085541 0.085541 0.979485
0.085541 0.085541 0.979485
0.101325 0.085143 0.979087
0.276786 0.080723 0.974667
0.446177 0.076456 0.970400
0.612974 0.072254 0.966199
0.781736 0.068003 0.961947
0.957519 0.063575 0.957519
1.000000 0.065562 0.943751
0.084203 0.100385 0.978147
0.084203 0.100385 0.978147
0.099730 0.099730 0.981056
0.275766 0.095155 0.976481
0.445712 0.090738 0.972064
0.613056 0.086389 0.967715
0.782372 0.081989 0.963314
0.958731 0.077405 0.958731
1.000000 0.079308 0.944954
0.069334 0.265397 0.963278
0.069334 0.265397 0.963278
0.084339 0.264950 0.965665
0.258101 0.258101 0.990315
0.434219 0.252017 0.984232
0.607640 0.246027 0.978242
0.783104 0.239966 0.972181
0.965868 0.233654 0.965868
1.000000 0.234383 0.952271
0.054980 0.424701 0.948924
0.054980 0.424701 0.948924
0.069481 0.424454 0.950807
0.237636 0.419837 0.969851
0.412105 0.412105 0.984961
0.591393 0.404531 0.977387
0.772794 0.396867 0.969723
0.961741 0.388885 0.961741
1.000000 0.388039 0.948785
0.040845 0.581565 0.934789
0.040845 0.581565 0.934789
0.054850 0.581517 0.936175
0.217485 0.579098 0.949700
0.386625 0.573487 0.959481
0.564819 0.564819 0.965968
0.752065 0.555577 0.956727
0.947100 0.545951 0.947100
1.000000 0.543131 0.935226
0.026544 0.740277 0.920488
0.026544 0.740277 0.920488
0.040046 0.740429 0.921372
0.197096 0.740234 0.929311
0.360844 0.736771 0.933700
0.533729 0.730216 0.934878
0.720410 0.720410 0.932895
0.921606 0.709120 0.921606
1.000000 0.703876 0.911280
0.011648 0.905592 0.905592
0.011648 0.905592 0.905592
0.024627 0.905953 0.905953
0.175859 0.908074 0.908074
0.333991 0.906847 0.906847
0.501346 0.902495 0.902495
0.682431 0.894917 0.894917
0.883627 0.883627 0.883627
1.000000 0.875400 0.875400
0.023460 1.000000 0.892104
0.023460 1.000000 0.892104
0.035803 1.000000 0.892224
0.179740 1.000000 0.891600
0.330425 1.000000 0.887591
0.490060 1.000000 0.880371
0.662945 1.000000 0.869763
0.855181 1.000000 0.855181
1.000000 1.000000 0.846306
0.085556 0.085556 1.000000
0.085556 0.085556 1.000000
0.101175 0.085209 1.000000
0.274668 0.081383 1.000000
0.441947 0.077747 1.000000
0.606461 0.074222 1.000000
0.772706 0.070712 1.000000
0.945647 0.067116 1.000000
1.000000 0.064762 1.000000
0.085556 0.085556 1.000000
0.085556 0.085556 1.000000
0.101175 0.085209 1.000000
0.274668 0.081383 1.000000
0.441947 0.077747 1.000000
0.606461 0.074222 1.000000
0.772706 0.070712 1.000000
0.945647 0.067116 1.000000
1.000000 0.064762 1.000000
0.084390 0.100353 1.000000
0.084390 0.100353 1.000000
0.099733 0.099733 1.000000
0.273776 0.095757 1.000000
0.441585 0.091975 1.000000
0.606621 0.088308 1.000000
0.773396 0.084652 1.000000
0.946887 0.080905 1.000000
1.000000 0.078487 1.000000
0.071805 0.264690 1.000000
0.071805 0.264690 1.000000
0.086598 0.264280 1.000000
0.257870 0.257870 1.000000
0.431577 0.252473 1.000000
0.602419 0.247214 1.000000
0.775068 0.241949 1.000000
0.954680 0.236525 1.000000
1.000000 0.233274 1.000000
0.060309 0.423086 1.000000
0.060309 0.423086 1.000000
0.074571 0.422880 1.000000
0.239939 0.418729 1.000000
0.411485 0.411485 1.000000
0.587933 0.404690 1.000000
0.766254 0.397870 1.000000
0.951774 0.390827 1.000000
1.000000 0.386592 1.000000
0.049618 0.578812 1.000000
0.049618 0.578812 1.000000
0.063357 0.578806 1.000000
0.222911 0.576880 1.000000
0.388844 0.571784 1.000000
0.563658 0.563658 1.000000
0.747564 0.555308 1.000000
0.938901 0.546671 1.000000
1.000000 0.541291 1.000000
0.039436 0.736125 1.000000
0.039436 0.736125 1.000000
0.052645 0.736322 1.000000
0.206317 0.736646 1.000000
0.366571 0.733723 1.000000
0.535793 0.727737 1.000000
0.718543 0.718543 1.000000
0.915766 0.708293 1.000000
1.000000 0.701578 1.000000
0.029508 0.899718 1.000000
0.029508 0.899718 1.000000
0.042167 0.900126 1.000000
0.189711 0.902795 1.000000
0.344051 0.902135 1.000000
0.507448 0.898378 1.000000
0.684305 0.891439 1.000000
0.880855 0.880855 1.000000
1.000000 0.872562 1.000000
0.022793 1.000000 1.000000
0.022793 1.000000 1.000000
0.035098 1.000000 1.000000
0.178605 1.000000 1.000000
0.328856 1.000000 1.000000
0.488046 1.000000 1.000000
0.660461 1.000000 1.000000
0.852188 1.000000 1.000000
1.000000 1.000000 1.000000
